X: 100448
U: P=!crescendo(!
U: p=!crescendo)!
U: Q=!diminuendo(!
U: q=!diminuendo)!
M: 2/4
L: 1/16
K: D
[|\
vD2DD D2DD | DA,DF DA,DF | F2FF F2FF | FDFA FDFA | A2AA A2AA |\
uA2 |\
f2a2 a2gf | g2g2 "_Divisi"g4 | ([g2G2]Q[f2F2])[e2E2][d2D2] | [c2C2][B2B,2] [A4A,4]q |\
a2ba g2ag | f2gf e4 | (dc)BA B2c2 | d2z2 [d'4d4] |]
(de) |\
(.f2z.f) (.f2z.d) | (.g2z.g) (.g2z.e) | (.f2z.f) (.f2z.d) | e6 (de) |\
(.f2z.f) (.f2z.d) | (.g2z.a) (.b2z.d') | {b}(.a2z.g) {g}(.f2z.e) | d6 c'2 |
(.d'2z.b) (.a2z.f) | (.g2z.a) (.b2z.c') | (d'b2)z (af2)z | e6 zuc' |\
(.d'2z.b) (.a2z.f) | (.g2z.a) (.b2z.d') | (3a2b2g2 (3f2g2e2 | vd2z2 v[d'4d4] "^D.C."|]


